packages/components/icon/src/assets/icons/select.svg

<svg viewBox="0 0 24 24" fill="none" xmlns="http://www.w3.org/2000/svg"><path fill-rule="evenodd" clip-rule="evenodd" d="M20 7h-9v2h9V7Zm0 8h-9v2h9v-2Zm-9-2v-2h9v2h-9ZM5 8l4 4-4 4V8Z" fill="currentColor"/></svg>

<svg width="24" height="24" viewBox="0 0 24 24" fill="none" xmlns="http://www.w3.org/2000/svg">
<path fill-rule="evenodd" clip-rule="evenodd" d="M20 7H11V9H20V7ZM20 15H11V17H20V15ZM11 13V11H20V13H11ZM5 8L9 12L5 16V8Z" fill="currentColor"/>
</svg>
